Default.style/hotel.svg

<svg width="30" height="24" xmlns="http://www.w3.org/2000/svg"><path d="M30 19.021v4.981h-3v-4.069H3v3.986H0V0h3v8.057h5l3 1.992v1.994h16V8.057h3v10.964Zm-3-3.988H3v.997h24v-.997Z" fill="#888" fill-rule="evenodd"/></svg>

<?xml version="1.0" encoding="UTF-8" standalone="no"?>
<svg width="30px" height="24px" viewBox="0 0 30 24" version="1.1" xmlns="http://www.w3.org/2000/svg" xmlns:xlink="http://www.w3.org/1999/xlink" xmlns:sketch="http://www.bohemiancoding.com/sketch/ns">
    <!-- Generator: Sketch 3.2.2 (9983) - http://www.bohemiancoding.com/sketch -->
    <title>hotel</title>
    <desc>Created with Sketch.</desc>
    <defs></defs>
    <g id="p" stroke="none" stroke-width="1" fill="none" fill-rule="evenodd" sketch:type="MSPage">
        <g id="hotel" sketch:type="MSLayerGroup" fill="#888888">
            <path d="M30,19.021 L30,24.002 L27,24.002 L27,19.933 L3,19.933 L3,23.919 L0,23.919 L0,19.933 L0,0 L3,0 L3,8.057 L8,8.057 L11,10.049 L11,11.046 L11,12.043 L12,12.043 L27,12.043 L27,8.057 L30,8.057 L30,14.036 L30,19.021 L30,19.021 Z M27,15.033 L15,15.033 L12,15.033 L3,15.033 L3,16.03 L27,16.03 L27,15.033 L27,15.033 Z" id="Shape" sketch:type="MSShapeGroup"></path>
        </g>
    </g>
</svg>
